X:187
T:Redwing
R:reel
M:4/4
L:1/4
K:G
D|:GGGB|dd d2|cege|ed d2|
|c2 cc|BBG2|AAFF|GG G2:|
|:gf e2|c2eg|fe d2|B3 d|
|ed d2|A3 d|ed d2|1 B4 :|2 BA G2|
